X:1
T:The Call to Rally
T:The Call to Rally
T:Edmund Simon Lorenz
T:O. L. Markham, 1915
T:Public Domain Courtesy of the Cyber Hymnal™
T:Public Domain Courtesy of the Cyber Hymnal™
C:Edmund Simon Lorenz
Z:Public Domain
Z:Courtesy of the Cyber Hymnal™
%%score ( 1 2 ) ( 3 4 )
L:1/8
Q:1/4=92
M:4/4
K:Ab
V:1 treble 
V:2 treble 
V:3 bass 
V:4 bass 
V:1
 [CE] | [DF]>[CE] [=B,=D]>[CE] [_DF]>[CE] [B,=D]>[CE] | [CA]>[CA] [EB]>[EB] [Ec]3 [Ec] | %3
w: 1.~We’ve|heard the call to ral- ly, and we|hast- en to o- bey; When|
w: 2.~We’ll|ga- ther ’round His ban- ner, glor- ious|em- blem of the right, The|
w: 3.~We’ll|help to save the fall- en from the|snares of doubt and sin, We’ll|
 [Ge]>[GB] [GB]>[EB] [=Ec]>[EG] [EG]>[EB] | [FA]>[FA] [EG]>[=DF] E3 [_DE] | %5
w: Je- sus needs our ser- vice, we will|heed with- out de- lay; Re-|
w: sym- bol of His truth and love, a-|gleam with ho- ly light; We’ll|
w: teach the youth to spurn the wrong and|choose the pure and clean; We’ll|
 [DF]>[CE] [=B,=D]>[CE] [_DF]>[CE] [B,=D]>[CE] | [CA]>[CA] [FB]>[FB] [=Ec]3 [Ec] | %7
w: deemed with His own pre- cious blood on|rug- ged Cal- va- ry, We|
w: chal- lenge ev- ery e- vil, we will|bat- tle in His might, And|
w: go in Je- sus’ pre- cious name and|bring the world to Him, And|
 [Fd]2 F2 [Ec]2 [DB]2 | [CA]6 z2 |:"^Refrain" [Ec]>[DB] [CA]>[Ec] [Ge]2 [GB]2 | %10
w: yield our all to|Him.|“Ral- ly!” is our watch- word,|
w: vic- tory shall be|ours.|Ral- ly, then with glad- ness,|
w: crown Him Lord for|aye.||
 [FA]>[CG] [CF]>[CA] [=Ec]3 z |1 F>[=EG] [FA]>[FB] [_Ec]>[=D=B] [Ec]>[Ae] | [Ge]2 =d2 [Ge]3 z :|2 %13
w: “Ral- ly” is our song!|All our time and all our power to|Christ be- long!|
w: ral- ly with a cheer,|We shall win the bat- tle, for ~|~ ~ ~|
w: |||
 [F_B]/ || [EA]2 [EG]2 [EA]3 |] %15
w: ||
w: our|cap- tain’s near!|
w: ||
V:2
 x | x8 | x8 | x8 | x4 E3 x | x8 | x8 | x2 F2 x4 | x8 |: x8 | x8 |1 F3/2 x13/2 | x2 (FA) x4 :|2 %13
 x/ || x7 |] %15
V:3
 [A,,A,] | [A,,A,]>[A,,A,] [A,,A,]>[A,,A,] [A,,A,]>[A,,A,] [A,,A,]>[A,,A,] | %2
 [F,A,]>[F,A,] [E,G,]>[E,G,] A,3 A, | [E,B,]>[E,E] [E,B,]>[E,G,] [C,G,]>[C,C] [C,C]>[C,C] | %4
 [F,C]>[F,C] [B,,B,]>[B,,A,] [E,G,]3 [E,G,] | %5
 [A,,A,]>[A,,A,] [A,,A,]>[A,,A,] [A,,A,]>[A,,A,] [A,,A,]>[A,,A,] | %6
 [F,A,]>[F,A,] [D,F,]>[D,F,] [C,G,]3 [C,G,] | [B,,A,]2 [D,A,]2 [E,G,]2 [E,G,]2 | [A,,A,]6 z2 |: %9
 A,>A, A,>A, [E,B,]2 [E,D]2 | [F,C]>[F,B,] [F,A,]>F, (G,2 B,) z |1 %11
 [D,A,]>[D,A,] [D,A,]>[D,A,] A,>A, A,>[A,C] | B,2 [B,,B,]2 [E,B,]3 z :|2 [D,D]/ || %14
 [E,C]2 (B,D) [A,,C]3 |] %15
V:4
 x | x8 | x4 A,3 A, | x8 | x8 | x8 | x8 | x8 | x8 |: A,>A, A,>A, x4 | x7/2 F,/ C,3 x |1 %11
 x4 A,>A, A,3/2 x/ | B,2 x6 :|2 x/ || x2 E,2 x3 |] %15

